X: 27661
T: More Grog Coming
R: reel
M: 4/4
K: Dmajor
|:A|d2ef gfec|d2fd adfa|(3gfe fd ecdB|AGFG Add:|
B|AGFD [E3A3]F|[D2A2]FD ADFB|AGFD [E3A3]F|AGFE D3B|
AGFD E2[D2D2]-|[D2D2]FD ADFB|AGFD [E3A3]F|AGFE D3||

